assets/No entry/Flat/no_entry_flat.svg

<svg width="32" height="32" viewBox="0 0 32 32" fill="none" xmlns="http://www.w3.org/2000/svg">
<path d="M30 16C30 23.732 23.732 30 16 30C8.26801 30 2 23.732 2 16C2 8.26801 8.26801 2 16 2C23.732 2 30 8.26801 30 16Z" fill="#F8312F"/>
<path d="M6 15C6 14.4477 6.44772 14 7 14H25C25.5523 14 26 14.4477 26 15V17C26 17.5523 25.5523 18 25 18H7C6.44772 18 6 17.5523 6 17V15Z" fill="white"/>
</svg>

<svg xmlns="http://www.w3.org/2000/svg" width="32" height="32" fill="none"><path fill="#F8312F" d="M30 16c0 7.732-6.268 14-14 14S2 23.732 2 16 8.268 2 16 2s14 6.268 14 14Z"/><path fill="#fff" d="M6 15a1 1 0 0 1 1-1h18a1 1 0 0 1 1 1v2a1 1 0 0 1-1 1H7a1 1 0 0 1-1-1v-2Z"/></svg>
